X:121
T:Jolly Miller - Fry
%%VWML:SBG-1-2-787-0
F:http://www.vwml.org/record/SBG/1/2/787
Z:Original Sibelius transcriptions by M. & S. Graebe
M:4/4
I:linebreak $
K:G
V:1 treble nm="P1"
V:1
 D | G2 A A B2 B B | c2 d d e2 e e | d2 c2 B2 G2 | A6 D D | G2 A2 B3 B |$ c2 d d e3 e | %7
 d2 B2 AG A2 | G6 d d | e2 B B A2 B c | d2 B A"^repeat chorus" G2 |: B B |$ c2 B2 A2 G2 | %13
 F2 E2 D2 D D | G2 A2 B2 B B | c2 d2 e2 e2 | d2 BA G3 Bc | d2 B2 G2 z2 | %18



